packages/core/src/svgs/tokens/branded/DBI.svg

<svg width="24" height="24" viewBox="0 0 24 24" fill="none" xmlns="http://www.w3.org/2000/svg">
<path d="M13.6813 18.0437C12.3062 16.1063 11.8438 15.7437 10.125 17.9875C10.0782 18.0356 10.0191 18.0704 9.95438 18.088C9.88948 18.1055 9.82108 18.1054 9.75619 18.0876C6.95001 17.45 4.97503 15.1438 6.04376 11.9438C6.09377 11.8 6.18752 11.5626 6.33127 11.2375C6.44377 10.975 6.43127 10.675 6.39378 10.3438C6.29376 9.55634 6.11252 5.98753 7.51876 6.13753C7.64377 6.15003 7.78126 6.18752 7.93126 6.24377C8.49377 6.46252 9.03751 6.78752 9.55625 7.21877C9.83756 7.44377 10.1688 7.31252 10.4687 7.25002C11.4366 7.04416 12.44 7.07417 13.3937 7.33752C13.6062 7.40002 13.7688 7.30626 13.9624 7.15002C14.6543 6.57385 15.4467 6.13094 16.3 5.84378C16.55 5.76252 16.7375 5.73127 16.8813 5.75628C17.9437 5.94378 18.0251 8.33127 17.975 9.1375C17.9376 9.71879 17.875 10.2938 17.7938 10.8688C17.6875 11.6063 18.0375 12.0375 18.1687 12.725C18.3245 13.4747 18.2683 14.2532 18.0067 14.9729C17.7451 15.6926 17.2883 16.3252 16.6875 16.8C15.9125 17.3937 14.85 17.9813 13.8875 18.0813C13.8166 18.087 13.7456 18.074 13.6813 18.0437Z" fill="#070404"/>
<path d="M15.1683 7.46877C15.0308 7.46253 14.8996 7.47503 14.762 7.52502C14.6745 7.55003 14.5558 7.62503 14.4183 7.73753C14.1309 7.96878 13.837 8.12502 13.4807 8.06877C13.2496 8.03128 13.0246 8.02503 12.7933 7.98128C12.312 7.88128 11.7558 7.95628 11.2371 7.99377C10.9246 8.01253 10.6558 8.05628 10.4245 8.12502C9.42455 8.43753 8.66206 9.12497 7.91831 9.87499C7.59331 10.1875 7.41831 10.6001 7.18082 10.975C6.94403 11.3542 6.7291 11.7465 6.53707 12.15C6.48082 12.1937 6.44331 12.1937 6.42456 12.15C6.86206 10.8251 7.61206 9.53126 8.64956 8.64378C9.83084 7.63128 11.337 7.40628 12.7996 7.68752L13.5745 7.84378C13.8058 7.89378 14.1745 7.53128 14.3557 7.39377C14.9853 6.91058 15.6879 6.53082 16.4371 6.26879C16.6558 6.20003 16.8246 6.20003 17.0182 6.30628C17.062 6.33753 17.062 6.41254 17.0058 6.43127C16.3558 6.70003 15.7433 7.04377 15.1683 7.46877Z" fill="#FECBD4"/>
<path d="M15.1686 7.46878L14.481 8.06254C14.0435 8.45629 14.531 8.64379 14.7935 8.81253C14.7997 8.91878 14.8498 9.01878 14.9373 9.11885C16.0936 10.3688 17.031 11.9938 16.8748 13.825L16.8685 13.8188C16.1992 13.7384 15.5219 13.7511 14.856 13.8562C14.3497 13.9375 13.7311 14.0938 13.2685 14.0438C12.8946 13.9996 12.5379 13.8621 12.231 13.6438C11.5436 13.1625 10.606 12.3438 9.70609 12.7063C9.1248 12.95 8.70604 13.5688 8.06855 13.6688C7.65605 13.7375 7.2498 13.6063 6.81854 13.4813C6.60701 13.4358 6.38922 13.4273 6.1748 13.4562C6.2123 13.0187 6.29354 12.5812 6.42479 12.15C6.44355 12.1937 6.4873 12.1937 6.5373 12.15C6.72934 11.7465 6.94426 11.3542 7.18105 10.975C7.41854 10.6001 7.59354 10.1938 7.91854 9.86873C8.28104 9.50633 8.67479 9.07503 9.21857 8.71253C9.37476 8.60628 9.52482 8.47503 9.69355 8.40003C9.93097 8.29379 10.1748 8.20003 10.4248 8.12503C10.656 8.05628 10.9248 8.01253 11.2373 7.99378C11.7561 7.95629 12.3123 7.88129 12.7998 7.98128C12.9248 8.00628 13.0372 8.02503 13.1373 8.03129C13.2373 8.03129 13.3497 8.05003 13.4747 8.06878C13.8372 8.13129 14.1311 7.96879 14.4123 7.73754C14.5561 7.62504 14.6748 7.55004 14.7623 7.52503C14.8998 7.47504 15.031 7.46254 15.1686 7.46878Z" fill="#FFB8C2"/>
<path d="M14.7932 8.81252C16.5183 9.87498 17.9808 11.7125 17.7745 13.9751C17.7807 13.9125 17.7307 13.9 17.6246 13.9251C17.5761 13.9408 17.5248 13.9452 17.4745 13.9375C17.2746 13.8937 17.0682 13.8625 16.8683 13.825C17.0307 11.9938 16.0933 10.3688 14.937 9.11884C14.8545 9.03679 14.8036 8.92834 14.7932 8.81252Z" fill="#CC949C"/>
<path d="M16.8686 13.8187C16.6505 15.0223 15.9879 16.0997 15.0123 16.8375C14.7061 17.0874 14.4811 17.3001 14.3249 17.4625L13.8686 17.6124C13.6686 17.675 13.5248 17.8188 13.6812 18.0437C13.4436 18.075 13.2125 18.1125 12.9812 18.1562C12.029 18.3244 11.0506 18.2666 10.1249 17.9875C10.1498 17.9312 10.1561 17.8688 10.1311 17.8C10.1263 17.7804 10.1154 17.7628 10.0999 17.75C10.0333 17.6976 9.95673 17.6594 9.87492 17.6375C7.87489 17.225 6.0999 15.8126 6.1749 13.4501C6.38967 13.4232 6.60747 13.4337 6.81864 13.4813C7.2499 13.6063 7.65614 13.7312 8.06865 13.6688C8.7124 13.5688 9.13117 12.9437 9.70619 12.7125C10.5999 12.3438 11.5437 13.1625 12.2311 13.6437C12.5561 13.8688 12.8999 14 13.2686 14.0438C13.7249 14.0938 14.3498 13.9374 14.8561 13.8562C15.522 13.7511 16.1993 13.7384 16.8686 13.8187Z" fill="white"/>
<path d="M16.8687 13.8187V13.825C17.0687 13.8625 17.275 13.8937 17.4749 13.9374C17.5187 13.9374 17.5687 13.9374 17.625 13.925C17.7312 13.9 17.7812 13.9125 17.7749 13.9751C17.7437 14.225 17.7249 14.4875 17.6311 14.7249C17.1312 16.0374 15.9125 16.9625 14.6561 17.3876C14.5125 17.4374 14.4062 17.4625 14.325 17.4625C14.4811 17.3001 14.7062 17.0874 15.0124 16.8375C15.988 16.0997 16.6505 15.0223 16.8687 13.8187Z" fill="#C8C9C9"/>
<path d="M7.48076 6.59377C8.15555 6.78461 8.78195 7.11697 9.31819 7.56876C9.337 7.58128 9.33073 7.61877 9.31206 7.63127L8.74951 7.94377C8.73771 7.95145 8.72347 7.95442 8.70958 7.95212C8.6957 7.9498 8.68319 7.94236 8.67451 7.93128C8.43136 7.59595 8.15496 7.28604 7.84952 7.00627C7.72451 6.88752 7.54951 6.80002 7.43076 6.70002C7.29951 6.58127 7.31202 6.55002 7.48076 6.59377Z" fill="#FFB8C2"/>
<path d="M16.8119 9.93755C16.8808 9.88126 16.9183 9.81884 16.9183 9.75001C16.8869 8.93751 16.8308 8.04377 16.7307 7.07502L17.2557 6.89378C17.2932 6.88752 17.3307 6.90628 17.3369 6.94377C17.5853 8.17396 17.598 9.44011 17.3744 10.675H17.362L17.3495 10.6625L16.8057 9.93755H16.8119Z" fill="#F48E96"/>
<path d="M6.79355 10.0688C6.69364 9.07082 6.76123 8.06319 6.99354 7.08752C7.00084 7.08153 7.00938 7.07725 7.01855 7.07502C7.02643 7.07158 7.03494 7.06982 7.04355 7.06982C7.05215 7.06982 7.06067 7.07158 7.06855 7.07502C7.55605 7.28127 7.98729 7.82503 8.30604 8.25627C8.31855 8.27502 8.31855 8.29378 8.2998 8.30628C7.73729 8.81878 7.2498 9.41255 6.8498 10.0813C6.81854 10.1438 6.7998 10.1438 6.78731 10.0688H6.79355ZM16.7373 7.07502C16.8311 8.04378 16.8872 8.93751 16.9186 9.75001C16.9186 9.81884 16.8811 9.88126 16.806 9.93755C16.2626 9.32797 15.6453 8.78834 14.9685 8.33127C14.9647 8.32835 14.9615 8.32459 14.9593 8.32025C14.9571 8.31592 14.9561 8.31113 14.9561 8.30628C14.9561 8.30142 14.9571 8.29664 14.9593 8.29229C14.9615 8.28796 14.9647 8.28418 14.9685 8.28128C15.5186 7.81877 16.0936 7.39377 16.7373 7.07502Z" fill="#ED6C74"/>
<path d="M12.6062 10.75C12.6883 10.7525 12.7701 10.7388 12.8469 10.7097C12.9237 10.6806 12.9939 10.6367 13.0537 10.5802C13.1135 10.5239 13.1617 10.4564 13.1953 10.3816C13.229 10.3067 13.2476 10.2259 13.25 10.1438C13.2525 10.0617 13.2388 9.97985 13.2096 9.90314C13.1805 9.82628 13.1366 9.75599 13.0803 9.6962C13.024 9.63641 12.9565 9.58843 12.8815 9.55474C12.8066 9.52106 12.7258 9.50239 12.6438 9.50006C12.5617 9.49758 12.4799 9.51129 12.403 9.54031C12.3263 9.56947 12.256 9.61337 12.1962 9.6698C12.1365 9.7261 12.0883 9.79362 12.0546 9.86843C12.021 9.94339 12.0024 10.0242 12 10.1063C11.9975 10.1884 12.0112 10.2702 12.0403 10.3469C12.0694 10.4238 12.1134 10.4941 12.1697 10.5538C12.226 10.6136 12.2935 10.6616 12.3685 10.6953C12.4433 10.729 12.5241 10.7477 12.6062 10.75ZM8.91873 10.75C9.26252 10.7188 9.51875 10.4188 9.49994 10.0751C9.49454 9.99312 9.47267 9.9132 9.43592 9.8397C9.39931 9.76635 9.34827 9.70101 9.286 9.64749C9.22373 9.59397 9.15154 9.55329 9.07345 9.52806C8.99537 9.50268 8.91303 9.4932 8.83124 9.50006C8.48749 9.53126 8.23125 9.83124 8.24999 10.175C8.275 10.5188 8.57499 10.7751 8.91873 10.75Z" fill="white"/>
<path d="M8.44349 12.625C7.88724 12.5625 7.59349 12.0375 7.65599 11.5938C7.7185 11.1437 8.14349 10.7 8.69974 10.7562C8.82132 10.7667 8.93941 10.8022 9.04667 10.8604C9.15392 10.9186 9.24798 10.9982 9.32308 11.0944C9.39819 11.1907 9.45258 11.3012 9.48306 11.4195C9.5134 11.5376 9.51908 11.6609 9.49969 11.7813C9.44967 12.1313 9.19971 12.4688 8.81225 12.5875C8.69349 12.6188 8.57474 12.6312 8.44973 12.6188L8.44349 12.625Z" fill="#070404"/>
<path d="M8.58731 11.45C8.58385 11.4829 8.58696 11.516 8.59642 11.5477C8.60588 11.5793 8.62153 11.6089 8.64245 11.6345C8.66337 11.66 8.68916 11.6811 8.71831 11.6967C8.74746 11.7123 8.77941 11.722 8.81231 11.725C8.9498 11.7313 9.06855 11.625 9.08734 11.4875C9.09069 11.4547 9.08763 11.4214 9.07819 11.3898C9.06873 11.3581 9.05308 11.3287 9.03217 11.3031C9.01124 11.2775 8.98546 11.2563 8.95631 11.2409C8.92714 11.2253 8.8952 11.2156 8.8623 11.2126C8.79468 11.2089 8.72831 11.2317 8.67707 11.276C8.62582 11.3202 8.59366 11.3826 8.58731 11.45Z" fill="white"/>
<path d="M13.8747 11.6875C13.8731 11.9356 13.7737 12.1732 13.5983 12.3486C13.4229 12.524 13.1853 12.6234 12.9373 12.625C12.7518 12.625 12.5705 12.57 12.4163 12.467C12.2622 12.3641 12.142 12.2177 12.0711 12.0463C12.0001 11.8749 11.9816 11.6865 12.0178 11.5047C12.0539 11.3228 12.1432 11.1557 12.2743 11.0246C12.4054 10.8935 12.5725 10.8042 12.7544 10.7681C12.9362 10.7319 13.1246 10.7504 13.296 10.8214C13.4674 10.8923 13.6138 11.0125 13.7167 11.1666C13.8197 11.3208 13.8747 11.502 13.8747 11.6875Z" fill="#070404"/>
<path d="M12.6751 11.6875C12.71 11.6931 12.7455 11.6912 12.7795 11.6817C12.8135 11.6721 12.8452 11.6553 12.872 11.6326C12.8988 11.6097 12.9204 11.5812 12.9353 11.5491C12.95 11.5171 12.9577 11.4822 12.9577 11.4469C12.9577 11.4116 12.95 11.3768 12.9353 11.3447C12.9204 11.3126 12.8988 11.2842 12.872 11.2613C12.8452 11.2384 12.8135 11.2216 12.7795 11.2121C12.7455 11.2026 12.71 11.2006 12.6751 11.2063C12.6179 11.2155 12.5659 11.2448 12.5284 11.2888C12.4908 11.333 12.4702 11.389 12.4702 11.4469C12.4702 11.5048 12.4908 11.5608 12.5284 11.6049C12.5659 11.649 12.6179 11.6782 12.6751 11.6875Z" fill="white"/>
<path d="M9.0684 15.1563L9.51214 14.7938C9.52818 14.7827 9.54116 14.7675 9.54962 14.75C9.55618 14.7312 9.55793 14.711 9.55473 14.6914C9.55137 14.6717 9.54321 14.6532 9.53096 14.6375C9.52104 14.6243 9.50821 14.6137 9.49333 14.6062C9.19962 14.4813 8.98716 14.2813 8.93715 13.9313C8.89966 13.6688 8.96215 13.4938 9.12467 13.3875C9.45585 13.1876 10.3871 13.175 10.6184 13.55C10.7622 13.7813 10.6559 14.1438 10.5058 14.3312C10.3997 14.4563 10.2247 14.5438 10.0809 14.6251C10.0682 14.6328 10.0574 14.6434 10.0497 14.6563C10.0401 14.6697 10.0338 14.6851 10.0316 14.7016C10.0294 14.718 10.0313 14.7346 10.0371 14.75L10.0621 14.7875C10.2808 14.9875 10.631 15.225 10.8747 15.2813C11.2058 15.35 11.4934 14.9688 11.7371 14.7687C11.7457 14.7619 11.7559 14.757 11.7669 14.7549C11.7778 14.7527 11.789 14.7531 11.7997 14.7563C11.9058 14.7875 11.9747 14.8625 11.9996 14.9813C12.0049 15.007 12.0005 15.0337 11.9871 15.0563C11.7059 15.4938 11.1621 15.9313 10.6434 15.6688C10.3683 15.525 10.0997 15.3688 9.8496 15.2001C9.83079 15.1877 9.80862 15.1817 9.78616 15.1827C9.76371 15.1839 9.74212 15.1921 9.72462 15.2062C9.38089 15.475 8.97466 15.8938 8.5684 15.3937C8.46846 15.2756 8.37459 15.1527 8.28716 15.0251C8.22466 14.9188 8.23715 14.825 8.33091 14.7438L8.3684 14.7C8.38531 14.6851 8.40523 14.6741 8.42681 14.6676C8.44838 14.6611 8.4711 14.6593 8.49341 14.6625C8.51453 14.6649 8.53493 14.6716 8.55325 14.6824C8.57156 14.6932 8.58739 14.7076 8.59965 14.725L8.89966 15.1375C8.94965 15.2001 9.0059 15.2062 9.0684 15.1563Z" fill="#070404"/>
<path fill-rule="evenodd" clip-rule="evenodd" d="M22 2.00003H2V22H22V2.00003ZM18.8749 5.12503H5.125V18.8751H18.8749V5.12503Z" fill="#FFC0C9"/>
</svg>

<svg xmlns="http://www.w3.org/2000/svg" width="24" height="24" fill="none" viewBox="0 0 24 24">
    <path fill="#070404" d="M13.681 18.044c-1.375-1.938-1.837-2.3-3.556-.056a.38.38 0 0 1-.369.1c-2.806-.638-4.781-2.944-3.712-6.144q.074-.217.287-.707c.113-.262.1-.562.063-.893-.1-.788-.281-4.356 1.125-4.206q.187.02.412.106a5.9 5.9 0 0 1 1.625.975c.282.225.613.094.913.031a6.2 6.2 0 0 1 2.925.088c.212.062.375-.032.568-.188A7.3 7.3 0 0 1 16.3 5.844c.25-.081.438-.113.581-.088 1.063.188 1.144 2.575 1.094 3.381a23 23 0 0 1-.181 1.732c-.107.737.244 1.168.375 1.856a4.12 4.12 0 0 1-1.482 4.075c-.775.594-1.837 1.181-2.8 1.281a.4.4 0 0 1-.206-.037"/>
    <path fill="#FECBD4" d="M15.168 7.469a1 1 0 0 0-.406.056c-.088.025-.206.1-.344.213-.287.23-.581.387-.937.33-.231-.037-.456-.043-.688-.087-.481-.1-1.037-.025-1.556.013a3.6 3.6 0 0 0-.812.131c-1 .313-1.763 1-2.507 1.75-.325.313-.5.725-.737 1.1q-.356.57-.644 1.175-.085.066-.112 0c.437-1.325 1.187-2.619 2.225-3.506 1.18-1.013 2.687-1.238 4.15-.956l.774.156c.232.05.6-.313.782-.45a7.5 7.5 0 0 1 2.081-1.125c.219-.069.388-.069.581.037.044.032.044.107-.012.125a8.6 8.6 0 0 0-1.838 1.038"/>
    <path fill="#FFB8C2" d="m15.169 7.469-.688.594c-.437.393.05.58.313.75a.5.5 0 0 0 .143.306c1.157 1.25 2.094 2.875 1.938 4.706l-.006-.006a7.3 7.3 0 0 0-2.013.037c-.506.082-1.125.238-1.588.188a2.24 2.24 0 0 1-1.037-.4c-.687-.482-1.625-1.3-2.525-.938-.581.244-1 .863-1.637.963-.413.069-.82-.063-1.25-.188a1.9 1.9 0 0 0-.644-.025c.037-.437.119-.875.25-1.306.019.044.062.044.112 0q.288-.606.644-1.175c.238-.375.413-.781.738-1.106.362-.363.756-.794 1.3-1.156.156-.107.306-.238.475-.313q.355-.16.73-.275c.232-.069.5-.112.813-.131.52-.038 1.075-.113 1.563-.013a3 3 0 0 0 .337.05c.1 0 .213.019.338.038.362.062.656-.1.937-.331.144-.113.263-.188.35-.213.138-.05.269-.062.407-.056"/>
    <path fill="#CC949C" d="M14.793 8.813c1.725 1.062 3.188 2.9 2.982 5.162.006-.062-.044-.075-.15-.05a.3.3 0 0 1-.15.012c-.2-.043-.407-.074-.607-.112.163-1.831-.775-3.456-1.931-4.706a.5.5 0 0 1-.144-.306"/>
    <path fill="#fff" d="M16.869 13.819a4.87 4.87 0 0 1-1.857 3.018c-.306.25-.53.463-.687.625l-.456.15c-.2.063-.344.207-.188.432q-.354.047-.7.112a6.2 6.2 0 0 1-2.856-.168.24.24 0 0 0 .006-.188.1.1 0 0 0-.031-.05.6.6 0 0 0-.225-.113c-2-.412-3.775-1.824-3.7-4.187a1.9 1.9 0 0 1 .644.031c.43.125.837.25 1.25.188.643-.1 1.062-.725 1.637-.957.894-.368 1.838.45 2.525.932q.486.336 1.038.4c.456.05 1.08-.107 1.587-.188a7.3 7.3 0 0 1 2.013-.037"/>
    <path fill="#C8C9C9" d="M16.869 13.819v.006c.2.038.406.069.606.112.044 0 .094 0 .15-.012.106-.025.156-.013.15.05-.031.25-.05.513-.144.75-.5 1.312-1.719 2.237-2.975 2.663-.144.05-.25.074-.331.074.156-.162.381-.375.687-.625a4.88 4.88 0 0 0 1.857-3.018"/>
    <path fill="#FFB8C2" d="M7.48 6.594c.676.19 1.302.523 1.838.975.019.012.013.05-.006.062l-.562.313a.056.056 0 0 1-.075-.013 6 6 0 0 0-.825-.925c-.125-.118-.3-.206-.42-.306-.13-.119-.118-.15.05-.106"/>
    <path fill="#F48E96" d="M16.812 9.938q.105-.086.106-.188a42 42 0 0 0-.187-2.675l.525-.181c.037-.006.075.012.08.05a9.9 9.9 0 0 1 .038 3.731h-.012l-.012-.013-.544-.724z"/>
    <path fill="#ED6C74" d="M6.794 10.069a9 9 0 0 1 .2-2.981l.025-.013a.06.06 0 0 1 .05 0c.487.206.918.75 1.237 1.181q.021.03-.006.05a7.8 7.8 0 0 0-1.45 1.775c-.031.063-.05.063-.063-.012zm9.943-2.994c.094.969.15 1.863.182 2.675q0 .103-.113.188a9.8 9.8 0 0 0-1.838-1.607l-.009-.01-.003-.015a.03.03 0 0 1 .013-.025c.55-.462 1.125-.887 1.768-1.206"/>
    <path fill="#fff" d="M12.606 10.75a.626.626 0 1 0 .038-1.25.626.626 0 0 0-.038 1.25m-3.687 0a.64.64 0 0 0 .58-.675.617.617 0 0 0-.668-.575.64.64 0 0 0-.581.675c.025.344.325.6.669.575"/>
    <path fill="#070404" d="M8.443 12.625c-.556-.062-.85-.588-.787-1.031.063-.45.487-.894 1.044-.838a.89.89 0 0 1 .8 1.025c-.05.35-.3.688-.688.806a1 1 0 0 1-.362.032z"/>
    <path fill="#fff" d="M8.587 11.45a.25.25 0 0 0 .225.275.27.27 0 0 0 .275-.237.25.25 0 0 0-.13-.247.3.3 0 0 0-.095-.028.26.26 0 0 0-.275.237"/>
    <path fill="#070404" d="M13.875 11.688a.944.944 0 0 1-.938.937.938.938 0 1 1 .938-.937"/>
    <path fill="#fff" d="M12.675 11.688a.244.244 0 1 0 .078-.482.244.244 0 0 0-.078.482"/>
    <path fill="#070404" d="m9.068 15.156.444-.362a.1.1 0 0 0 .038-.044.12.12 0 0 0-.019-.113.1.1 0 0 0-.038-.03c-.293-.126-.506-.326-.556-.676-.037-.262.025-.437.188-.543.33-.2 1.262-.213 1.493.162.144.231.038.594-.112.781-.106.125-.281.213-.425.294a.1.1 0 0 0-.031.031.1.1 0 0 0-.013.094l.025.037c.219.2.569.438.813.494.33.069.618-.312.862-.512a.07.07 0 0 1 .063-.013.28.28 0 0 1 .2.225.1.1 0 0 1-.013.075c-.281.438-.825.875-1.344.613a8 8 0 0 1-.793-.469.11.11 0 0 0-.125.006c-.344.269-.75.688-1.157.188a5 5 0 0 1-.28-.369q-.096-.16.043-.281l.037-.044a.16.16 0 0 1 .125-.037.15.15 0 0 1 .107.062l.3.412q.075.095.168.02"/>
    <path fill="#FFC0C9" fill-rule="evenodd" d="M22 2H2v20h20zm-3.125 3.125H5.125v13.75h13.75z" clip-rule="evenodd"/>
</svg>
